!!!COM:  Endresen, R. W.
!!!OTL:  Supplementary Study No. 11
!!!ONB:  Royal Conservatory of Music Grade 2
!!!YEC:  Copyright 2001, Joy Ollen
!!!YEM:  Rights to all derivative electronic formats reserved.
!! [Marcato]
**kern	**dynam
*MM70	*
*clefG2	*
*k[b-e-]	*
*M4/4	*
=-	=-
4.bb-^	mf
8ff	.
4.gg	.
8dd	.
=2	=2
4ff	.
4bb-	<
4ddd	(
4ccc	(
=3	=3
[2bb-	Xf
8bb-]	.
8aa	.
8ccc	.
8bb-	.
=4	=4
2.aa	>
.	]
4r	.
=5	=5
4.ccc	mf
8aa	.
4ff	.
4ff	.
=6	=6
4.ddd	.
8bb-	.
4ff	.
4gg	.
=7	=7
[2aa	.
8aa]	.
8gg	.
8bb-	.
8aa	.
=8	=8
4.ff	.
8ee	.
4dd	.
4cc	.
=9	=9
4.b-^	.
8f	.
4.g^	.
8d	.
=10	=10
4f	.
4b-	.
4dd	.
4cc	.
=11	=11
[2b-	.
8b-]	.
8b-	.
8cc	.
8dd	.
.	<
=12	=12
2ee-	(
2een	(
=13	=13
[2ff	f
8ff]	.
8dd	.
8ee-	.
8een	.
=14	=14
4.ff^	.
8bb-	.
4ddd	.
4ccc	.
=15	=15
[2aa	.
8aa]	.
8gg	.
8ee	.
8a	.
=16	=16
2.b-	.
4cc	.
=17	=17
*k[b-en]	*
4.aa^	.
8gg	.
(16ff	.
16gg	.
16aa	.
16bb-	.
8ccc)	.
8aa	.
=18	=18
4.bb-^	.
8aa	.
(16gg	>
16ff	)
16ee	)
16dd	)
8cc)	Xmf
8cc	.
=19	=19
8ff'	mp
8ff'	.
(16gg	.
16ff	.
16ee	.
16ff)	.
8gg'	.
8gg'	.
(16aa	.
16gg	.
16ff	.
16gg)	.
=20	=20
8aa	<
8ccc	(
.	[
8bb-	Xmp
8aa	.
(16gg	.
16ff	.
16ee	.
16ff	.
8gg)	.
8cc	.
=21	=21
4.aa^	.
8gg	.
(16ff	.
16gg	.
16aa	.
16bb-	.
8ccc)	.
8ff	.
=22	=22
4.ddd^	.
8ccc	.
(16bb-	.
16ccc	.
16ddd	.
16eee	.
8fff)	.
8ddd	.
=23	=23
8ccc	.
8fff	.
(16gg	.
16ff	.
16ee	.
16ff)	.
8gg	.
8ccc	.
8cc	.
8ccc	.
=24	=24
(16ff	<
16gg	(
16aa	(
16bb-	(
16ccc	Xmf
16bb-	>
16aa	)
16gg	)
8ff)	Xmp
8r	.
8fff	.
8r	.
==	==
*-	*-
